assets/icons/radar.svg

<?xml version="1.0" encoding="UTF-8" standalone="no"?>
<svg
   viewBox="0 0 148.38637 158.61363"
   version="1.1"
   id="svg342"
   sodipodi:docname="radar.svg"
   inkscape:version="1.2.2 (732a01da63, 2022-12-09)"
   width="148.38637"
   height="158.61363"
   xmlns:inkscape="http://www.inkscape.org/namespaces/inkscape"
   xmlns:sodipodi="http://sodipodi.sourceforge.net/DTD/sodipodi-0.dtd"
   xmlns="http://www.w3.org/2000/svg"
   xmlns:svg="http://www.w3.org/2000/svg"
   xmlns:bx="https://boxy-svg.com">
  <sodipodi:namedview
     id="namedview344"
     pagecolor="#ffffff"
     bordercolor="#000000"
     borderopacity="0.25"
     inkscape:showpageshadow="false"
     inkscape:pageopacity="0.0"
     inkscape:pagecheckerboard="true"
     inkscape:deskcolor="#d1d1d1"
     showgrid="false"
     inkscape:zoom="1.674"
     inkscape:cx="-18.817204"
     inkscape:cy="154.12186"
     inkscape:window-width="1920"
     inkscape:window-height="1017"
     inkscape:window-x="-8"
     inkscape:window-y="-8"
     inkscape:window-maximized="1"
     inkscape:current-layer="g338"
     showborder="false"
     borderlayer="false"
     shape-rendering="crispEdges" />
  <defs
     id="defs316">
    <bx:grid
       x="0"
       y="0"
       width="11.32"
       height="10.487" />
  </defs>
  <g
     transform="translate(-105.04544,-249.75)"
     id="g338">
    <g
       id="SVGRepo_iconCarrier"
       transform="matrix(9.274148,0,0,9.913352,105.04544,249.75)">
      <rect
         width="16"
         height="16"
         id="icon-bound"
         fill="none"
         style="fill-rule:nonzero;stroke-width:1.45928px"
         x="0"
         y="0" />
      <path
         d="M 8.0322063,0 C 3.6002008,0 0.00321082,2.688 0.00321082,6 c 0,6 8.02899548,10 8.02899548,10 0,0 8.0289957,-4 8.0289957,-10 0,-3.312 -3.59699,-6 -8.0289957,-6 z"
         style="fill-rule:nonzero;stroke-width:1.68808px"
         id="path327" />
    </g>
    <g
       transform="matrix(0.25912688,0,0,0.28615003,133.70362,248.13882)"
       id="g336">
      <path
         d="m 237.631,233.8 v -94 c 0,-4.687 -3.813,-8.5 -8.5,-8.5 h -142 c -4.687,0 -8.5,3.813 -8.5,8.5 v 94 c 0,4.687 3.813,8.5 8.5,8.5 h 142 c 4.687,0 8.5,-3.813 8.5,-8.5 z m -15,-6.5 h -129 v -81 h 129 z"
         style="fill:#ffffff"
         id="path330" />
      <path
         d="m 158.131,210.3 c 12.958,0 23.5,-10.542 23.5,-23.5 0,-12.958 -10.542,-23.5 -23.5,-23.5 -12.958,0 -23.5,10.542 -23.5,23.5 0,12.958 10.542,23.5 23.5,23.5 z m 0,-32 c 4.687,0 8.5,3.813 8.5,8.5 0,4.687 -3.813,8.5 -8.5,8.5 -4.687,0 -8.5,-3.813 -8.5,-8.5 0,-4.687 3.814,-8.5 8.5,-8.5 z"
         style="fill:#ffffff"
         id="path332" />
      <path
         d="m 373.1,275.3 h -24 c -8.151,0 -14.384,7.349 -18.524,21.841 -1.527,5.342 -2.722,11.496 -3.561,18.159 H 190.6 v -8.5 c 0,-4.142 -3.357,-7.5 -7.5,-7.5 h -0.5 v -17 h 80.531 c 12.958,0 23.5,-10.542 23.5,-23.5 v -40.5 h 8.933 c 8.223,0 15.02,-6.431 15.476,-14.64 L 317.213,92.547 C 317.698,83.815 314.656,75.506 308.646,69.153 302.635,62.799 293.508,59.3 284.762,59.3 H 31.501 c -8.745,0 -15.872,3.499 -21.882,9.852 -6.01,6.354 -9.054,14.662 -8.569,23.395 l 6.173,111.112 c 0.456,8.21 7.254,14.641 15.477,14.641 h 8.932 v 40.5 c 0,12.958 10.542,23.5 23.5,23.5 H 135.6 v 17 h -0.5 c -4.143,0 -7.5,3.358 -7.5,7.5 v 48 c 0,17.369 14.131,31.5 31.5,31.5 14.785,0 27.216,-10.241 30.591,-24 h 137.324 c 0.839,6.662 2.034,12.817 3.561,18.158 4.141,14.493 10.373,21.842 18.524,21.842 h 24 c 4.143,0 7.5,-3.358 7.5,-7.5 v -112 c 0,-4.142 -3.357,-7.5 -7.5,-7.5 z m -350.4,-72 c -0.266,0 -0.485,-0.208 -0.5,-0.472 L 16.027,91.716 C 15.773,87.141 17.368,82.789 20.516,79.461 23.663,76.133 27.92,74.3 32.501,74.3 h 253.26 c 4.582,0 8.839,1.833 11.987,5.161 3.147,3.328 4.741,7.68 4.487,12.254 l -6.173,111.113 c -0.015,0.264 -0.234,0.472 -0.499,0.472 h -8.933 v -88.5 c 0,-12.958 -10.542,-23.5 -23.5,-23.5 h -208 c -12.958,0 -23.5,10.542 -23.5,23.5 v 88.5 z m 23.931,55.5 v -144 c 0,-4.687 3.813,-8.5 8.5,-8.5 h 208 c 4.687,0 8.5,3.813 8.5,8.5 v 144 c 0,4.687 -3.813,8.5 -8.5,8.5 h -208 c -4.686,0 -8.5,-3.813 -8.5,-8.5 z M 150.6,282.3 h 17 v 17 h -17 z m 8.5,89 c -9.098,0 -16.5,-7.402 -16.5,-16.5 v -40.5 h 33 v 8.5 32 c 0,9.098 -7.402,16.5 -16.5,16.5 z m 31.5,-24 v -17 h 135.177 c -0.117,2.794 -0.177,5.633 -0.177,8.5 0,2.868 0.061,5.706 0.177,8.5 z m 175,40 h -15.689 c -3.343,-3.065 -9.311,-19.947 -9.311,-48.5 0,-28.553 5.968,-45.435 9.311,-48.5 H 365.6 Z"
         style="fill:#ffffff"
         id="path334" />
    </g>
  </g>
</svg>

<?xml version="1.0" encoding="utf-8"?>
<svg viewBox="0 0 500 500" xmlns="http://www.w3.org/2000/svg" xmlns:bx="https://boxy-svg.com">
  <defs>
    <bx:grid x="0" y="0" width="11.32" height="10.487"/>
  </defs>
  <g id="SVGRepo_bgCarrier" stroke-width="0" transform="matrix(9.274148, 0, 0, 9.913352, 305.636353, 119.840912)" style=""/>
  <g id="SVGRepo_tracerCarrier" stroke-linecap="round" stroke-linejoin="round" stroke="#CCCCCC" stroke-width="0.032" transform="matrix(9.274148, 0, 0, 9.913352, 305.636353, 119.840912)" style=""/>
  <g transform="matrix(1, 0, 0, 1, -319.111572, 217.972076)"/>
  <g id="g-1" stroke-width="0" transform="matrix(9.274148, 0, 0, 9.913352, 414.51709, 111.13604)" style=""/>
  <g id="g-2" stroke-linecap="round" stroke-linejoin="round" stroke="#CCCCCC" stroke-width="0.032" transform="matrix(9.274148, 0, 0, 9.913352, 414.51709, 111.13604)" style=""/>
  <g transform="matrix(1, 0, 0, 1, 170.720718, -110.812874)">
    <g id="g-3" stroke-width="0" transform="matrix(9.274148, 0, 0, 9.913352, 90.435181, 187.460907)" style=""/>
    <g id="g-4" stroke-linecap="round" stroke-linejoin="round" stroke="#CCCCCC" stroke-width="0.032" transform="matrix(9.274148, 0, 0, 9.913352, 90.435181, 187.460907)" style=""/>
    <g transform="matrix(1, 0, 0, 1, -153.360443, -34.488884)">
      <g id="SVGRepo_iconCarrier" transform="matrix(9.274148, 0, 0, 9.913352, 105.045441, 249.75)" style="">
        <rect width="16" height="16" id="icon-bound" fill="none" style="stroke-width: 1.45928px; fill-rule: nonzero;"/>
        <path d="M 8 0 C 4.688 0 2 2.688 2 6 C 2 12 8 16 8 16 C 8 16 14 12 14 6 C 14 2.688 11.312 0 8 0 Z" style="stroke-width: 1.45928px; fill-rule: nonzero;"/>
      </g>
      <g transform="matrix(0.188311, 0, 0, 0.237385, 148.70871, 251.62796)" style="">
        <path d="M237.631,233.8v-94c0-4.687-3.813-8.5-8.5-8.5h-142c-4.687,0-8.5,3.813-8.5,8.5v94c0,4.687,3.813,8.5,8.5,8.5h142&#10;&#9;&#9;C233.818,242.3,237.631,238.487,237.631,233.8z M222.631,227.3h-129v-81h129V227.3z" style="fill: rgb(255, 255, 255);"/>
        <path d="M158.131,210.3c12.958,0,23.5-10.542,23.5-23.5s-10.542-23.5-23.5-23.5s-23.5,10.542-23.5,23.5&#10;&#9;&#9;S145.173,210.3,158.131,210.3z M158.131,178.3c4.687,0,8.5,3.813,8.5,8.5s-3.813,8.5-8.5,8.5s-8.5-3.813-8.5-8.5&#10;&#9;&#9;S153.445,178.3,158.131,178.3z" style="fill: rgb(255, 255, 255);"/>
        <path d="M 373.1 275.3 L 349.1 275.3 C 340.949 275.3 334.716 282.649 330.576 297.141 C 329.049 302.483 327.854 308.637 327.015 315.3 L 190.6 315.3 L 190.6 306.8 C 190.6 302.658 187.243 299.3 183.1 299.3 L 182.6 299.3 L 182.6 282.3 L 263.131 282.3 C 276.089 282.3 286.631 271.758 286.631 258.8 L 286.631 218.3 L 295.564 218.3 C 303.787 218.3 310.584 211.869 311.04 203.66 L 317.213 92.547 C 317.698 83.815 314.656 75.506 308.646 69.153 C 302.635 62.799 293.508 59.3 284.762 59.3 L 31.501 59.3 C 22.756 59.3 15.629 62.799 9.619 69.152 C 3.609 75.506 0.565 83.814 1.05 92.547 L 7.223 203.659 C 7.679 211.869 14.477 218.3 22.7 218.3 L 31.632 218.3 L 31.632 258.8 C 31.632 271.758 42.174 282.3 55.132 282.3 L 135.6 282.3 L 135.6 299.3 L 135.1 299.3 C 130.957 299.3 127.6 302.658 127.6 306.8 L 127.6 354.8 C 127.6 372.169 141.731 386.3 159.1 386.3 C 173.885 386.3 186.316 376.059 189.691 362.3 L 327.015 362.3 C 327.854 368.962 329.049 375.117 330.576 380.458 C 334.717 394.951 340.949 402.3 349.1 402.3 L 373.1 402.3 C 377.243 402.3 380.6 398.942 380.6 394.8 L 380.6 282.8 C 380.6 278.658 377.243 275.3 373.1 275.3 Z M 22.7 203.3 C 22.434 203.3 22.215 203.092 22.2 202.828 L 16.027 91.716 C 15.773 87.141 17.368 82.789 20.516 79.461 C 23.663 76.133 27.92 74.3 32.501 74.3 L 285.761 74.3 C 290.343 74.3 294.6 76.133 297.748 79.461 C 300.895 82.789 302.489 87.141 302.235 91.715 L 296.062 202.828 C 296.047 203.092 295.828 203.3 295.563 203.3 L 286.63 203.3 L 286.63 114.8 C 286.63 101.842 276.088 91.3 263.13 91.3 L 55.13 91.3 C 42.172 91.3 31.63 101.842 31.63 114.8 L 31.63 203.3 L 22.7 203.3 Z M 46.631 258.8 L 46.631 114.8 C 46.631 110.113 50.444 106.3 55.131 106.3 L 263.131 106.3 C 267.818 106.3 271.631 110.113 271.631 114.8 L 271.631 258.8 C 271.631 263.487 267.818 267.3 263.131 267.3 L 55.131 267.3 C 50.445 267.3 46.631 263.487 46.631 258.8 Z M 150.6 282.3 L 167.6 282.3 L 167.6 299.3 L 150.6 299.3 L 150.6 282.3 Z M 159.1 371.3 C 150.002 371.3 142.6 363.898 142.6 354.8 L 142.6 314.3 L 175.6 314.3 L 175.6 322.8 L 175.6 354.8 C 175.6 363.898 168.198 371.3 159.1 371.3 Z M 190.6 347.3 L 190.6 330.3 L 325.777 330.3 C 325.66 333.094 325.6 335.933 325.6 338.8 C 325.6 341.668 325.661 344.506 325.777 347.3 L 190.6 347.3 Z M 365.6 387.3 L 349.911 387.3 C 346.568 384.235 340.6 367.353 340.6 338.8 C 340.6 310.247 346.568 293.365 349.911 290.3 L 365.6 290.3 L 365.6 387.3 Z" style="fill: rgb(255, 255, 255);"/>
      </g>
    </g>
  </g>
</svg>
